X: 26199
T: McShane's Rambles
R: jig
M: 6/8
K: Dmixolydian
|:DEF GFG|ADE FGA|BGG cAA|BAG AGE|
DEF GFG|ADE FGA|BGG cAG|FDD D3:|
|:dBB cAA|BAG ABA|GEE cAA|BAG ABc|
d2B cBA|BAG ABA|GEE cEE|EDD D3:|

